X:1
T:Now All the Bells Are Ringing
T:Now All the Bells Are Ringing
T:John Bacchus Dykes (1823-1876)
T:Anonymous, before 1884
T:Public Domain Courtesy of the Cyber Hymnal™
T:Public Domain Courtesy of the Cyber Hymnal™
C:John Bacchus Dykes (1823-1876)
Z:Public Domain
Z:Courtesy of the Cyber Hymnal™
%%score ( 1 2 ) ( 3 4 )
L:1/8
Q:1/4=110
M:4/4
K:D
V:1 treble 
V:2 treble 
V:3 bass 
V:4 bass 
V:1
 AA | A4 A2 AA | A4 A2 AA | (e4 c4) | A6 d2 | c2 B2 A2 G2 | (F2 E2) D2 F2 | %7
w: ~ ~|~ ~ ~ ~|~ ~ ~ ~|~ *|~ 1.~Now|all the bells are|ring- * ing To|
w: Al- le-|lu- ia! Al- le-|lu- ia! Al- le-|lu- *|ia! 2.~O|hast- en we to|meet * Him, With|
w: ~ ~|~ ~ ~ ~|~ ~ ~ ~|~ *|~ 3.~Still,|Je- sus! we a-|dore * Thee With|
 [FA]2 [Fd]2 [DB]2 [Gd]2 | [Fd]6 [Ad]2 | [Ac]2 [^GB]2 A2 [Dd]2 | ([Ec]2 [FB]2) A2 [Ff]2 | %11
w: wel- come Eas- ter|day, And|we with joy are|sing- * ing Our|
w: our com- pan- ions|dear, With|love and awe to|greet * Him, As|
w: faith which may not|fail; Still|as we kneel be-|fore * Thee, We|
 [ce]2 [Bd]2 [Ac]2 [^GB]2 | A6 [CA]2 | [CA]3 [CA] [DB]2 [Ec]2 | d4 [FA]2 [^DB]2 | %15
w: car- ol sweet and|gay; For|Je- sus hath a-|ri- sen From|
w: He is draw- ing|near; Of|old His friends were|bid- den To|
w: hear Thee say, “All|hail”! Thou,|who art now des-|cend- ing To|
 [^DB]3 [DB] [Ec]2 [F^d]2 | [Ee]6 [GB]2 | [Gd]2 [Gc]2 [GB]2 [Gc]2 | ([Ge]2 [Fd]2) [Ac]2 [GB]2 | %19
w: Jo- seph’s rock- y|cave, Hath|burst His three days’|pri- * son, And|
w: haste to Gal- i-|lee; Still|in His Church, all|glor- * ious, Our|
w: raise us up to|Thee, An|Eas- ter- tide un-|end- * ing, Grant|
 [FA]3 [Gd] [Ad]2 [Gc]2 | [Fd]6 AA | A4 A2 AA | A4 A2 A[Fd] | ([Ff]4 [Ge]4) | [Fd]8 |] %25
w: tri- umphed o’er the|grave. * *|||||
w: ris- en Lord will|be. Al- le-|lu- ia! Al- le-|lu- ia! Al- le-|lu- *|ia!|
w: us in Heav’n to|see. * *|||||
V:2
 AA | A4 A2 AA | A4 A2 AA | A8 | A6 d2 | c2 B2 A2 G2 | F2 E2 D2 F2 | x8 | x8 | x4 A2 x2 | %10
 x4 A2 x2 | x8 | A6 x2 | x8 | (^D2 E2) x4 | x8 | x8 | x8 | x8 | x8 | x6 AA | A4 A2 AA | A4 A2 A x | %23
 x8 | x8 |] %25
V:3
 A,A, | A,4 A,2 A,A, | A,4 A,2 A,A, | (C4 E4) | [A,C]6 D2 | C2 B,2 A,2 G,2 | F,2 E,2 D,2 [D,A,]2 | %7
 [D,D]2 [D,A,]2 [G,B,]2 [G,B,]2 | [D,A,]6 [D,F]2 | [E,E]2 [E,D]2 [F,C]2 [F,A,]2 | %10
 A,4 [C,E,]2 [D,A,]2 | [E,A,]2 [E,B,]2 [E,C]2 [E,D]2 | [A,C]6 [A,,A,]2 | %13
 [A,,G,]3 [A,,E,] [A,,A,]2 [A,,G,]2 | (F,2 G,2) [D,A,]2 [B,,A,]2 | %15
 [B,,A,]3 [B,,F,] [B,,B,]2 [B,,A,]2 | [E,G,]6 [E,E]2 | [A,E]2 [A,E]2 [A,D]2 [A,E]2 | %18
 ([^A,C]2 [B,D]2) [F,D]2 [G,D]2 | [A,D]3 [B,D] [A,F]2 [A,E]2 | [D,D]6 A,A, | A,4 A,2 A,A, | %22
 A,4 A,2 [F,D][D,D] | (D4 C4) | [D,D]8 |] %25
V:4
 A,A, | A,4 A,2 A,A, | A,4 A,2 A,A, | A,8 | x6 D2 | C2 B,2 A,2 G,2 | (F,2 E,2) D,2 x2 | x8 | x8 | %9
 x8 | (E,2 D,2) x4 | x8 | x8 | x8 | D,4 x4 | x8 | x8 | x8 | x8 | x8 | x6 A,A, | A,4 A,2 A,A, | %22
 A,4 A,2 x2 | A,8 | x8 |] %25

